src/Assets/Tangerine.svg

<svg width="62" height="24" viewBox="0 0 62 24" fill="none" xmlns="http://www.w3.org/2000/svg">
<path d="M20.075 1.738C20.179 1.842 20.1704 1.972 20.049 2.128C19.7717 2.52667 19.5637 2.7 19.425 2.648C19.217 2.57867 19.009 2.518 18.801 2.466C18.593 2.39667 18.3763 2.336 18.151 2.284C17.1803 2.37067 16.3137 2.882 15.551 3.818C14.7883 4.73667 14.1037 6.19267 13.497 8.186C12.5957 11.1153 11.339 13.3167 9.72702 14.79C8.13235 16.246 6.19968 16.974 3.92902 16.974C3.30502 16.974 2.76768 16.896 2.31702 16.74C1.86635 16.5667 1.49368 16.35 1.19902 16.09C0.904349 15.8127 0.687682 15.5007 0.549016 15.154C0.410349 14.79 0.341016 14.426 0.341016 14.062C0.341016 13.022 0.852349 12.1553 1.87502 11.462C1.94435 11.462 1.98768 11.4967 2.00502 11.566C2.02235 11.6353 2.01368 11.696 1.97902 11.748C1.73635 11.9387 1.55435 12.1467 1.43302 12.372C1.32902 12.58 1.27702 12.8833 1.27702 13.282C1.27702 14.166 1.58035 14.868 2.18702 15.388C2.81102 15.8907 3.72968 16.142 4.94302 16.142C5.77502 16.142 6.53768 16.0293 7.23102 15.804C7.92435 15.5787 8.55702 15.1973 9.12902 14.66C9.71835 14.1053 10.2557 13.3687 10.741 12.45C11.2437 11.5313 11.7203 10.3787 12.171 8.992C12.795 7.05067 13.5403 5.49067 14.407 4.312C15.2737 3.116 16.253 2.37067 17.345 2.076C16.1837 1.78133 14.979 1.54733 13.731 1.374C12.483 1.20067 11.2437 1.114 10.013 1.114C9.04235 1.114 8.17568 1.27867 7.41302 1.608C6.66768 1.92 6.04368 2.34467 5.54102 2.882C5.03835 3.41933 4.67435 4.052 4.44902 4.78C4.22368 5.49067 4.16302 6.236 4.26702 7.016C4.16302 7.172 4.06768 7.18067 3.98102 7.042C3.87702 6.19267 3.93768 5.36067 4.16302 4.546C4.40568 3.73133 4.81302 3.00333 5.38502 2.362C5.95702 1.72067 6.70235 1.20933 7.62102 0.827999C8.53968 0.446665 9.62302 0.255999 10.871 0.255999C12.7257 0.255999 14.407 0.411999 15.915 0.723999C17.4404 1.01867 18.827 1.35667 20.075 1.738ZM21.0669 15.362C21.1015 15.3273 21.1449 15.3273 21.1969 15.362C21.2489 15.3967 21.2662 15.4487 21.2489 15.518C20.8849 16.0207 20.5209 16.3933 20.1569 16.636C19.8102 16.8787 19.5155 17 19.2729 17C19.1169 17 18.9869 16.922 18.8829 16.766C18.7962 16.61 18.7355 16.402 18.7009 16.142C18.6835 15.8647 18.6922 15.5613 18.7269 15.232C18.7789 14.8853 18.8569 14.53 18.9609 14.166C18.4929 14.894 17.9989 15.5267 17.4789 16.064C16.9589 16.584 16.4562 16.896 15.9709 17C15.6589 17 15.3902 16.8527 15.1649 16.558C14.9569 16.246 14.8529 15.7693 14.8529 15.128C14.8529 14.556 14.9655 13.9927 15.1909 13.438C15.4335 12.866 15.7542 12.3547 16.1529 11.904C16.5515 11.436 17.0109 11.0633 17.5309 10.786C18.0509 10.5087 18.5969 10.37 19.1689 10.37C19.4809 10.37 19.7495 10.4047 19.9749 10.474C20.2002 10.5433 20.4082 10.6473 20.5989 10.786C20.7029 10.6993 20.8415 10.6213 21.0149 10.552C21.2055 10.4653 21.3789 10.422 21.5349 10.422C21.6215 10.422 21.6475 10.4653 21.6129 10.552C21.2142 11.0373 20.8675 11.5747 20.5729 12.164C20.2955 12.7533 20.0789 13.3253 19.9229 13.88C19.7669 14.4347 19.6629 14.9287 19.6109 15.362C19.5762 15.778 19.6109 16.064 19.7149 16.22C19.8015 16.3413 19.9575 16.35 20.1829 16.246C20.4082 16.1247 20.7029 15.83 21.0669 15.362ZM16.5429 16.116C16.7335 16.116 16.9762 15.986 17.2709 15.726C17.5829 15.4487 17.9035 15.0933 18.2329 14.66C18.5622 14.2267 18.8829 13.7413 19.1949 13.204C19.5242 12.6493 19.8102 12.0947 20.0529 11.54C19.9835 11.3147 19.8189 11.1327 19.5589 10.994C19.3162 10.8553 19.0302 10.786 18.7009 10.786C18.3195 10.786 17.9555 10.89 17.6089 11.098C17.2795 11.2887 16.9849 11.566 16.7249 11.93C16.4649 12.2767 16.2569 12.6927 16.1009 13.178C15.9449 13.6633 15.8669 14.2007 15.8669 14.79C15.8669 15.1713 15.9275 15.492 16.0489 15.752C16.1875 15.9947 16.3522 16.116 16.5429 16.116ZM29.0215 15.336C29.0735 15.3013 29.1255 15.3013 29.1775 15.336C29.2295 15.3707 29.2468 15.4227 29.2295 15.492C28.9348 15.8907 28.6055 16.246 28.2415 16.558C27.8948 16.8527 27.5655 17 27.2535 17C26.7161 17 26.4475 16.6533 26.4475 15.96C26.4475 15.3707 26.5515 14.7207 26.7595 14.01C26.9675 13.282 27.2535 12.554 27.6175 11.826C27.6868 11.7047 27.7215 11.5833 27.7215 11.462C27.7215 11.2713 27.6348 11.176 27.4615 11.176C26.8201 11.176 26.1095 11.618 25.3295 12.502C24.5668 13.386 23.8561 14.7727 23.1975 16.662C23.1628 16.766 23.0675 16.8527 22.9115 16.922C22.7555 16.974 22.6081 17 22.4695 17C22.2788 17 22.2095 16.922 22.2615 16.766C22.5561 16.0207 22.8595 15.18 23.1715 14.244C23.5008 13.308 23.7868 12.3807 24.0295 11.462C24.0988 11.1327 24.0381 10.968 23.8475 10.968C23.6741 10.968 23.5008 11.0547 23.3275 11.228C23.1541 11.4013 22.9721 11.6267 22.7815 11.904C22.7468 11.9387 22.7035 11.93 22.6515 11.878C22.6168 11.826 22.6081 11.774 22.6255 11.722C22.8161 11.4273 23.0761 11.124 23.4055 10.812C23.7348 10.5 24.0901 10.344 24.4715 10.344C24.9048 10.344 25.0521 10.6387 24.9135 11.228C24.8441 11.6093 24.7488 12.0167 24.6275 12.45C24.5061 12.866 24.3761 13.282 24.2375 13.698C24.4801 13.23 24.7661 12.788 25.0955 12.372C25.4248 11.956 25.7628 11.6007 26.1095 11.306C26.4735 11.0113 26.8288 10.7773 27.1755 10.604C27.5395 10.4307 27.8775 10.344 28.1895 10.344C28.3975 10.344 28.5535 10.396 28.6575 10.5C28.7788 10.604 28.8395 10.7253 28.8395 10.864C28.8395 11.0893 28.7875 11.3147 28.6835 11.54C28.3195 12.1987 28.0075 12.892 27.7475 13.62C27.5048 14.3307 27.3835 14.9893 27.3835 15.596C27.3835 16.0293 27.5221 16.246 27.7995 16.246C28.1635 16.246 28.5708 15.9427 29.0215 15.336ZM35.1319 9.98C35.1839 9.94533 35.2359 9.954 35.2879 10.006C35.3399 10.0407 35.3485 10.0927 35.3139 10.162C35.1752 10.37 35.0019 10.5607 34.7939 10.734C34.5859 10.89 34.3259 10.9593 34.0139 10.942C34.1699 11.202 34.2479 11.54 34.2479 11.956C34.2479 12.3547 34.1872 12.7187 34.0659 13.048C33.9445 13.3773 33.8059 13.6893 33.6499 13.984C33.4939 14.2787 33.3292 14.556 33.1559 14.816C32.9999 15.076 32.8699 15.3447 32.7659 15.622C32.6792 15.8993 32.6359 16.1853 32.6359 16.48C32.6532 16.7573 32.7572 17.0693 32.9479 17.416C33.1039 17.7107 33.2425 17.9707 33.3639 18.196C33.5025 18.4387 33.6152 18.664 33.7019 18.872C33.8059 19.0973 33.8752 19.3227 33.9099 19.548C33.9619 19.7733 33.9879 20.016 33.9879 20.276C33.9879 20.692 33.9012 21.082 33.7279 21.446C33.5545 21.8273 33.3032 22.1567 32.9739 22.434C32.6445 22.7287 32.2459 22.954 31.7779 23.11C31.3099 23.2833 30.7812 23.37 30.1919 23.37C29.5852 23.37 29.0392 23.2833 28.5539 23.11C28.0685 22.9367 27.6612 22.7027 27.3319 22.408C26.9852 22.1307 26.7252 21.8013 26.5519 21.42C26.3785 21.056 26.2919 20.6747 26.2919 20.276C26.2919 19.756 26.4825 19.2967 26.8639 18.898C27.2279 18.5167 27.7565 18.2307 28.4499 18.04C28.5365 18.04 28.5972 18.066 28.6319 18.118C28.6492 18.1873 28.6319 18.248 28.5799 18.3C28.2159 18.4387 27.9212 18.6467 27.6959 18.924C27.4705 19.2013 27.3579 19.574 27.3579 20.042C27.3579 20.926 27.6612 21.6367 28.2679 22.174C28.8745 22.7113 29.6719 22.98 30.6599 22.98C31.4919 22.98 32.1072 22.7633 32.5059 22.33C32.9045 21.914 33.1039 21.368 33.1039 20.692C33.1039 20.2933 33.0432 19.938 32.9219 19.626C32.8005 19.314 32.6185 18.9587 32.3759 18.56C32.0465 18.0053 31.8992 17.4767 31.9339 16.974C31.9859 16.454 32.1679 15.9167 32.4799 15.362C32.5145 15.2927 32.5492 15.232 32.5839 15.18C32.6359 15.1107 32.6792 15.0327 32.7139 14.946C32.5232 15.154 32.2979 15.336 32.0379 15.492C31.7952 15.648 31.5872 15.726 31.4139 15.726C30.5645 15.726 30.1399 15.1713 30.1399 14.062C30.1399 13.698 30.2092 13.2993 30.3479 12.866C30.4865 12.4327 30.6772 12.034 30.9199 11.67C31.1799 11.2887 31.4745 10.9767 31.8039 10.734C32.1505 10.4913 32.5319 10.37 32.9479 10.37C33.5545 10.37 34.0225 10.3527 34.3519 10.318C34.6812 10.266 34.9412 10.1533 35.1319 9.98ZM33.0519 14.322C33.1559 14.0793 33.2425 13.828 33.3119 13.568C33.3812 13.308 33.4159 13.048 33.4159 12.788C33.4159 12.2853 33.3292 11.8953 33.1559 11.618C32.9999 11.3233 32.7399 11.176 32.3759 11.176C31.9599 11.176 31.6045 11.384 31.3099 11.8C31.0325 12.216 30.8939 12.8053 30.8939 13.568C30.8939 14.0707 30.9719 14.4347 31.1279 14.66C31.3012 14.8853 31.5525 14.998 31.8819 14.998C32.0725 14.998 32.2805 14.9373 32.5059 14.816C32.7312 14.6947 32.9132 14.53 33.0519 14.322ZM40.0708 11.488C40.0708 11.7307 39.9755 11.956 39.7848 12.164C39.5942 12.372 39.3342 12.5627 39.0048 12.736C38.6755 12.892 38.2942 13.0393 37.8608 13.178C37.4448 13.3167 37.0028 13.4467 36.5348 13.568C36.5175 13.7587 36.5002 13.9493 36.4828 14.14C36.4828 14.3307 36.4828 14.5387 36.4828 14.764C36.4828 15.1973 36.5782 15.5613 36.7688 15.856C36.9595 16.1507 37.2282 16.298 37.5748 16.298C37.9215 16.298 38.2422 16.2113 38.5368 16.038C38.8488 15.8647 39.1262 15.6307 39.3688 15.336C39.4382 15.3013 39.4902 15.31 39.5248 15.362C39.5595 15.414 39.5595 15.4747 39.5248 15.544C39.2302 15.9427 38.8575 16.2893 38.4068 16.584C37.9735 16.8613 37.5142 17 37.0288 17C36.5782 17 36.2055 16.8527 35.9108 16.558C35.6335 16.2633 35.4948 15.83 35.4948 15.258C35.4948 14.738 35.5902 14.192 35.7808 13.62C35.9715 13.0307 36.2228 12.4933 36.5348 12.008C36.8468 11.5227 37.2022 11.124 37.6008 10.812C38.0168 10.5 38.4502 10.344 38.9008 10.344C39.2302 10.344 39.5075 10.4653 39.7328 10.708C39.9582 10.9333 40.0708 11.1933 40.0708 11.488ZM38.3548 11.02C37.9562 11.02 37.6008 11.1933 37.2888 11.54C36.9768 11.8867 36.7515 12.4327 36.6128 13.178C37.4448 13.0567 38.0515 12.8833 38.4328 12.658C38.8315 12.4153 39.0308 12.1467 39.0308 11.852C39.0308 11.6093 38.9702 11.41 38.8488 11.254C38.7275 11.098 38.5628 11.02 38.3548 11.02ZM43.2183 11.072C43.2183 11.332 43.1923 11.6353 43.1403 11.982C43.0883 12.3287 43.0189 12.6753 42.9323 13.022C43.2789 12.19 43.6603 11.54 44.0763 11.072C44.4923 10.5867 44.9429 10.344 45.4283 10.344C45.6189 10.344 45.7923 10.396 45.9483 10.5C46.1043 10.604 46.1823 10.7513 46.1823 10.942C46.1823 11.0807 46.1303 11.2627 46.0263 11.488C45.9223 11.696 45.8183 11.852 45.7143 11.956C45.6103 12.0253 45.5583 11.9993 45.5583 11.878C45.5583 11.5833 45.3589 11.436 44.9603 11.436C44.3536 11.436 43.8076 11.8953 43.3223 12.814C42.8369 13.7153 42.3776 14.972 41.9443 16.584C41.9096 16.7573 41.7883 16.87 41.5803 16.922C41.3896 16.974 41.2249 17 41.0863 17C40.8956 17 40.8523 16.9047 40.9563 16.714C41.1123 16.35 41.2596 15.96 41.3983 15.544C41.5369 15.1107 41.6669 14.6773 41.7883 14.244C41.9269 13.8107 42.0396 13.386 42.1263 12.97C42.2129 12.554 42.2823 12.1727 42.3343 11.826C42.4036 11.306 42.3169 11.046 42.0743 11.046C41.9356 11.046 41.7709 11.124 41.5803 11.28C41.4069 11.436 41.2423 11.618 41.0863 11.826C41.0169 11.8607 40.9563 11.8607 40.9043 11.826C40.8523 11.774 40.8436 11.7133 40.8783 11.644C41.1383 11.3147 41.4243 11.02 41.7363 10.76C42.0656 10.4827 42.3689 10.344 42.6463 10.344C43.0276 10.344 43.2183 10.5867 43.2183 11.072ZM46.5024 12.164C46.4504 12.1987 46.3984 12.19 46.3464 12.138C46.3117 12.0687 46.3117 12.008 46.3464 11.956C46.5891 11.7133 46.9184 11.436 47.3344 11.124C47.7504 10.812 48.1664 10.552 48.5824 10.344C48.7211 10.344 48.7904 10.422 48.7904 10.578C48.5651 10.9767 48.3397 11.41 48.1144 11.878C47.9064 12.346 47.7157 12.814 47.5424 13.282C47.3864 13.7327 47.2564 14.1747 47.1524 14.608C47.0484 15.024 46.9964 15.3707 46.9964 15.648C46.9964 16.012 47.1177 16.194 47.3604 16.194C47.5511 16.194 47.7331 16.116 47.9064 15.96C48.0971 15.7867 48.3137 15.5613 48.5564 15.284C48.5911 15.2493 48.6344 15.258 48.6864 15.31C48.7384 15.362 48.7471 15.4227 48.7124 15.492C48.4004 15.8733 48.0624 16.22 47.6984 16.532C47.3517 16.844 47.0224 17 46.7104 17C46.2597 17 46.0344 16.714 46.0344 16.142C46.0344 15.8127 46.0864 15.4227 46.1904 14.972C46.3117 14.504 46.4591 14.036 46.6324 13.568C46.8057 13.1 46.9964 12.6493 47.2044 12.216C47.4297 11.7827 47.6464 11.41 47.8544 11.098C47.6637 11.2367 47.4211 11.4187 47.1264 11.644C46.8491 11.852 46.6411 12.0253 46.5024 12.164ZM48.8424 9.226C48.7904 9.278 48.7384 9.28667 48.6864 9.252C48.6517 9.2 48.6257 9.13933 48.6084 9.07C48.5911 8.98333 48.5824 8.888 48.5824 8.784C48.5824 8.68 48.6084 8.59333 48.6604 8.524C49.1111 7.9 49.7437 7.23267 50.5584 6.522C50.6104 6.50467 50.6624 6.522 50.7144 6.574C50.7664 6.60867 50.7751 6.64333 50.7404 6.678C50.3764 7.00733 50.0297 7.406 49.7004 7.874C49.3711 8.32467 49.0851 8.77533 48.8424 9.226ZM56.3672 15.336C56.4192 15.3013 56.4712 15.3013 56.5232 15.336C56.5752 15.3707 56.5925 15.4227 56.5752 15.492C56.2805 15.8907 55.9512 16.246 55.5872 16.558C55.2405 16.8527 54.9112 17 54.5992 17C54.0618 17 53.7932 16.6533 53.7932 15.96C53.7932 15.3707 53.8972 14.7207 54.1052 14.01C54.3132 13.282 54.5992 12.554 54.9632 11.826C55.0325 11.7047 55.0672 11.5833 55.0672 11.462C55.0672 11.2713 54.9805 11.176 54.8072 11.176C54.1658 11.176 53.4552 11.618 52.6752 12.502C51.9125 13.386 51.2018 14.7727 50.5432 16.662C50.5085 16.766 50.4132 16.8527 50.2572 16.922C50.1012 16.974 49.9538 17 49.8152 17C49.6245 17 49.5552 16.922 49.6072 16.766C49.9018 16.0207 50.2052 15.18 50.5172 14.244C50.8465 13.308 51.1325 12.3807 51.3752 11.462C51.4445 11.1327 51.3838 10.968 51.1932 10.968C51.0198 10.968 50.8465 11.0547 50.6732 11.228C50.4998 11.4013 50.3178 11.6267 50.1272 11.904C50.0925 11.9387 50.0492 11.93 49.9972 11.878C49.9625 11.826 49.9538 11.774 49.9712 11.722C50.1618 11.4273 50.4218 11.124 50.7512 10.812C51.0805 10.5 51.4358 10.344 51.8172 10.344C52.2505 10.344 52.3978 10.6387 52.2592 11.228C52.1898 11.6093 52.0945 12.0167 51.9732 12.45C51.8518 12.866 51.7218 13.282 51.5832 13.698C51.8258 13.23 52.1118 12.788 52.4412 12.372C52.7705 11.956 53.1085 11.6007 53.4552 11.306C53.8192 11.0113 54.1745 10.7773 54.5212 10.604C54.8852 10.4307 55.2232 10.344 55.5352 10.344C55.7432 10.344 55.8992 10.396 56.0032 10.5C56.1245 10.604 56.1852 10.7253 56.1852 10.864C56.1852 11.0893 56.1332 11.3147 56.0292 11.54C55.6652 12.1987 55.3532 12.892 55.0932 13.62C54.8505 14.3307 54.7292 14.9893 54.7292 15.596C54.7292 16.0293 54.8678 16.246 55.1452 16.246C55.5092 16.246 55.9165 15.9427 56.3672 15.336ZM61.9576 11.488C61.9576 11.7307 61.8622 11.956 61.6716 12.164C61.4809 12.372 61.2209 12.5627 60.8916 12.736C60.5622 12.892 60.1809 13.0393 59.7476 13.178C59.3316 13.3167 58.8896 13.4467 58.4216 13.568C58.4042 13.7587 58.3869 13.9493 58.3696 14.14C58.3696 14.3307 58.3696 14.5387 58.3696 14.764C58.3696 15.1973 58.4649 15.5613 58.6556 15.856C58.8462 16.1507 59.1149 16.298 59.4616 16.298C59.8082 16.298 60.1289 16.2113 60.4236 16.038C60.7356 15.8647 61.0129 15.6307 61.2556 15.336C61.3249 15.3013 61.3769 15.31 61.4116 15.362C61.4462 15.414 61.4462 15.4747 61.4116 15.544C61.1169 15.9427 60.7442 16.2893 60.2936 16.584C59.8602 16.8613 59.4009 17 58.9156 17C58.4649 17 58.0922 16.8527 57.7976 16.558C57.5202 16.2633 57.3816 15.83 57.3816 15.258C57.3816 14.738 57.4769 14.192 57.6676 13.62C57.8582 13.0307 58.1096 12.4933 58.4216 12.008C58.7336 11.5227 59.0889 11.124 59.4876 10.812C59.9036 10.5 60.3369 10.344 60.7876 10.344C61.1169 10.344 61.3942 10.4653 61.6196 10.708C61.8449 10.9333 61.9576 11.1933 61.9576 11.488ZM60.2416 11.02C59.8429 11.02 59.4876 11.1933 59.1756 11.54C58.8636 11.8867 58.6382 12.4327 58.4996 13.178C59.3316 13.0567 59.9382 12.8833 60.3196 12.658C60.7182 12.4153 60.9176 12.1467 60.9176 11.852C60.9176 11.6093 60.8569 11.41 60.7356 11.254C60.6142 11.098 60.4496 11.02 60.2416 11.02Z" fill="#DFDFDF"/>
</svg>

<svg xmlns="http://www.w3.org/2000/svg" fill="none" width="62" height="24" viewBox="0 0 62 24"><path d="M20.075 1.738c.104.104.095.234-.026.39-.277.399-.485.572-.624.52a8.468 8.468 0 0 0-.624-.182 7.115 7.115 0 0 0-.65-.182c-.97.087-1.837.598-2.6 1.534-.763.919-1.447 2.375-2.054 4.368-.901 2.93-2.158 5.13-3.77 6.604-1.595 1.456-3.527 2.184-5.798 2.184-.624 0-1.161-.078-1.612-.234a3.654 3.654 0 0 1-1.118-.65 2.611 2.611 0 0 1-.65-.936 3.049 3.049 0 0 1-.208-1.092c0-1.04.511-1.907 1.534-2.6.07 0 .113.035.13.104.017.07.009.13-.026.182-.243.19-.425.399-.546.624-.104.208-.156.511-.156.91 0 .884.303 1.586.91 2.106.624.503 1.543.754 2.756.754a7.37 7.37 0 0 0 2.288-.338 5.023 5.023 0 0 0 1.898-1.144c.59-.555 1.127-1.291 1.612-2.21.503-.919.98-2.071 1.43-3.458.624-1.941 1.37-3.501 2.236-4.68.867-1.196 1.846-1.941 2.938-2.236a33.327 33.327 0 0 0-3.614-.702 26.999 26.999 0 0 0-3.718-.26c-.97 0-1.837.165-2.6.494a5.352 5.352 0 0 0-1.872 1.274A4.827 4.827 0 0 0 4.449 4.78a5.086 5.086 0 0 0-.182 2.236c-.104.156-.2.165-.286.026a6.37 6.37 0 0 1 .182-2.496 5.681 5.681 0 0 1 1.222-2.184c.572-.641 1.317-1.153 2.236-1.534.919-.381 2.002-.572 3.25-.572 1.855 0 3.536.156 5.044.468 1.525.295 2.912.633 4.16 1.014Zm.992 13.624c.035-.035.078-.035.13 0 .052.035.07.087.052.156-.364.503-.728.875-1.092 1.118-.347.243-.642.364-.884.364-.156 0-.286-.078-.39-.234a1.778 1.778 0 0 1-.182-.624 5.46 5.46 0 0 1 .026-.91c.052-.347.13-.702.234-1.066a12.22 12.22 0 0 1-1.482 1.898c-.52.52-1.023.832-1.508.936-.312 0-.58-.147-.806-.442-.208-.312-.312-.789-.312-1.43 0-.572.113-1.135.338-1.69a5.593 5.593 0 0 1 .962-1.534c.399-.468.858-.84 1.378-1.118a3.434 3.434 0 0 1 1.638-.416c.312 0 .58.035.806.104.225.07.433.173.624.312.104-.087.242-.165.416-.234.19-.087.364-.13.52-.13.087 0 .113.043.078.13a8.553 8.553 0 0 0-1.04 1.612c-.277.59-.494 1.161-.65 1.716a9.927 9.927 0 0 0-.312 1.482c-.035.416 0 .702.104.858.087.121.242.13.468.026.225-.121.52-.416.884-.884Zm-4.524.754c.19 0 .433-.13.728-.39.312-.277.633-.633.962-1.066.33-.433.65-.919.962-1.456.33-.555.615-1.11.858-1.664-.07-.225-.234-.407-.494-.546a1.7 1.7 0 0 0-.858-.208 2.09 2.09 0 0 0-1.092.312 2.84 2.84 0 0 0-.884.832c-.26.347-.468.763-.624 1.248a5.248 5.248 0 0 0-.234 1.612c0 .381.06.702.182.962.139.243.303.364.494.364Zm12.479-.78a.13.13 0 0 1 .155 0c.053.035.07.087.053.156a6.435 6.435 0 0 1-.989 1.066c-.346.295-.675.442-.988.442-.537 0-.805-.347-.805-1.04 0-.59.104-1.24.311-1.95.209-.728.494-1.456.858-2.184a.728.728 0 0 0 .104-.364c0-.19-.086-.286-.26-.286-.64 0-1.351.442-2.131 1.326-.763.884-1.474 2.27-2.132 4.16-.035.104-.13.19-.287.26a1.4 1.4 0 0 1-.442.078c-.19 0-.26-.078-.207-.234.294-.745.598-1.586.91-2.522a36.16 36.16 0 0 0 .857-2.782c.07-.33.01-.494-.181-.494-.174 0-.347.087-.52.26a4.823 4.823 0 0 0-.546.676c-.035.035-.079.026-.13-.026a.172.172 0 0 1-.027-.156c.191-.295.451-.598.78-.91.33-.312.685-.468 1.066-.468.434 0 .581.295.442.884-.069.381-.164.789-.285 1.222-.122.416-.252.832-.39 1.248a8.16 8.16 0 0 1 .858-1.326 7.489 7.489 0 0 1 1.014-1.066 5.872 5.872 0 0 1 1.066-.702c.364-.173.702-.26 1.014-.26.207 0 .363.052.467.156a.468.468 0 0 1 .183.364c0 .225-.052.45-.157.676a14.09 14.09 0 0 0-.936 2.08c-.242.71-.363 1.37-.363 1.976 0 .433.138.65.415.65.364 0 .772-.303 1.223-.91Zm6.11-5.356c.052-.035.104-.026.156.026.052.035.06.087.026.156a2.682 2.682 0 0 1-.52.572c-.208.156-.468.225-.78.208.156.26.234.598.234 1.014 0 .399-.06.763-.182 1.092a7.73 7.73 0 0 1-.416.936 9.58 9.58 0 0 1-.494.832 4.94 4.94 0 0 0-.39.806c-.087.277-.13.563-.13.858.017.277.121.59.312.936.156.295.294.555.416.78.139.243.251.468.338.676.104.225.173.45.208.676.052.225.078.468.078.728 0 .416-.087.806-.26 1.17-.174.381-.425.71-.754.988-.33.295-.728.52-1.196.676-.468.173-.997.26-1.586.26a4.848 4.848 0 0 1-1.638-.26 3.646 3.646 0 0 1-1.222-.702 2.67 2.67 0 0 1-.78-.988 2.628 2.628 0 0 1-.26-1.144c0-.52.19-.98.572-1.378.364-.381.892-.667 1.586-.858.087 0 .147.026.182.078a.18.18 0 0 1-.052.182 2.055 2.055 0 0 0-.884.624c-.226.277-.338.65-.338 1.118 0 .884.303 1.595.91 2.132.607.537 1.404.806 2.392.806.832 0 1.447-.217 1.846-.65.398-.416.598-.962.598-1.638 0-.399-.06-.754-.182-1.066a6.96 6.96 0 0 0-.546-1.066c-.33-.555-.477-1.083-.442-1.586.052-.52.234-1.057.546-1.612.035-.07.07-.13.104-.182.052-.07.095-.147.13-.234-.19.208-.416.39-.676.546-.243.156-.45.234-.624.234-.85 0-1.274-.555-1.274-1.664 0-.364.07-.763.208-1.196.139-.433.33-.832.572-1.196.26-.381.554-.693.884-.936a1.951 1.951 0 0 1 1.144-.364c.606 0 1.075-.017 1.404-.052.33-.052.59-.165.78-.338Zm-2.08 4.342c.104-.243.19-.494.26-.754s.104-.52.104-.78c0-.503-.087-.893-.26-1.17-.156-.295-.416-.442-.78-.442-.416 0-.771.208-1.066.624-.277.416-.416 1.005-.416 1.768 0 .503.078.867.234 1.092.173.225.424.338.754.338.19 0 .399-.06.624-.182a1.5 1.5 0 0 0 .546-.494Zm7.019-2.834c0 .243-.096.468-.286.676a2.84 2.84 0 0 1-.78.572 9.38 9.38 0 0 1-1.144.442 19.93 19.93 0 0 1-1.326.39l-.052.572v.624c0 .433.095.797.286 1.092.19.295.46.442.806.442.346 0 .667-.087.962-.26a2.88 2.88 0 0 0 .832-.702c.07-.035.121-.026.156.026s.035.113 0 .182a4.292 4.292 0 0 1-1.118 1.04 2.514 2.514 0 0 1-1.378.416c-.45 0-.824-.147-1.118-.442-.278-.295-.416-.728-.416-1.3 0-.52.095-1.066.286-1.638.19-.59.442-1.127.754-1.612a4.783 4.783 0 0 1 1.066-1.196c.416-.312.85-.468 1.3-.468.33 0 .606.121.832.364.225.225.338.485.338.78Zm-1.716-.468c-.399 0-.754.173-1.066.52-.312.347-.538.893-.676 1.638.832-.121 1.438-.295 1.82-.52.398-.243.598-.511.598-.806 0-.243-.06-.442-.182-.598a.592.592 0 0 0-.494-.234Zm4.863.052c0 .26-.026.563-.078.91-.052.347-.121.693-.208 1.04.347-.832.728-1.482 1.144-1.95.416-.485.867-.728 1.352-.728.19 0 .364.052.52.156a.5.5 0 0 1 .234.442c0 .139-.052.32-.156.546a1.815 1.815 0 0 1-.312.468c-.104.07-.156.043-.156-.078 0-.295-.2-.442-.598-.442-.606 0-1.152.46-1.638 1.378-.485.901-.944 2.158-1.378 3.77-.034.173-.156.286-.364.338-.19.052-.355.078-.494.078-.19 0-.234-.095-.13-.286.156-.364.304-.754.442-1.17.139-.433.269-.867.39-1.3.139-.433.252-.858.338-1.274.087-.416.156-.797.208-1.144.07-.52-.017-.78-.26-.78-.138 0-.303.078-.494.234a3.788 3.788 0 0 0-.494.546c-.07.035-.13.035-.182 0-.052-.052-.06-.113-.026-.182.26-.33.546-.624.858-.884.33-.277.633-.416.91-.416.382 0 .572.243.572.728Zm3.284 1.092c-.052.035-.104.026-.156-.026-.034-.07-.034-.13 0-.182.243-.243.572-.52.988-.832a8.196 8.196 0 0 1 1.248-.78c.14 0 .208.078.208.234-.225.399-.45.832-.676 1.3-.208.468-.398.936-.572 1.404-.156.45-.286.893-.39 1.326-.104.416-.156.763-.156 1.04 0 .364.122.546.364.546.191 0 .373-.078.546-.234.191-.173.408-.399.65-.676.035-.035.078-.026.13.026.052.052.061.113.026.182a8.23 8.23 0 0 1-1.014 1.04c-.346.312-.676.468-.988.468-.45 0-.676-.286-.676-.858 0-.33.052-.72.156-1.17.122-.468.27-.936.442-1.404.174-.468.364-.919.572-1.352.226-.433.442-.806.65-1.118-.19.139-.433.32-.728.546a6.083 6.083 0 0 0-.624.52Zm2.34-2.938c-.052.052-.104.06-.156.026a.576.576 0 0 1-.078-.182 1.464 1.464 0 0 1-.026-.286c0-.104.026-.19.078-.26.451-.624 1.084-1.291 1.898-2.002.052-.017.104 0 .156.052.052.035.061.07.026.104-.364.33-.71.728-1.04 1.196-.329.45-.615.901-.858 1.352Zm7.525 6.11a.13.13 0 0 1 .156 0c.052.035.07.087.052.156a6.435 6.435 0 0 1-.988 1.066c-.347.295-.676.442-.988.442-.537 0-.806-.347-.806-1.04 0-.59.104-1.24.312-1.95.208-.728.494-1.456.858-2.184a.728.728 0 0 0 .104-.364c0-.19-.087-.286-.26-.286-.641 0-1.352.442-2.132 1.326-.762.884-1.473 2.27-2.132 4.16-.035.104-.13.19-.286.26a1.4 1.4 0 0 1-.442.078c-.19 0-.26-.078-.208-.234.295-.745.598-1.586.91-2.522.33-.936.615-1.863.858-2.782.07-.33.009-.494-.182-.494-.173 0-.346.087-.52.26a4.823 4.823 0 0 0-.546.676c-.035.035-.078.026-.13-.026a.172.172 0 0 1-.026-.156c.19-.295.45-.598.78-.91.33-.312.685-.468 1.066-.468.434 0 .58.295.442.884-.07.381-.165.789-.286 1.222-.121.416-.251.832-.39 1.248.243-.468.529-.91.858-1.326.33-.416.667-.771 1.014-1.066.364-.295.72-.529 1.066-.702.364-.173.702-.26 1.014-.26.208 0 .364.052.468.156a.468.468 0 0 1 .182.364c0 .225-.052.45-.156.676a14.09 14.09 0 0 0-.936 2.08c-.243.71-.364 1.37-.364 1.976 0 .433.139.65.416.65.364 0 .771-.303 1.222-.91Zm5.59-3.848c0 .243-.095.468-.285.676a2.846 2.846 0 0 1-.78.572c-.33.156-.711.303-1.144.442a19.93 19.93 0 0 1-1.326.39l-.052.572v.624c0 .433.095.797.286 1.092.19.295.459.442.806.442.346 0 .667-.087.962-.26.312-.173.589-.407.832-.702.069-.035.12-.026.156.026.034.052.034.113 0 .182a4.295 4.295 0 0 1-1.118 1.04 2.514 2.514 0 0 1-1.378.416c-.451 0-.824-.147-1.118-.442-.278-.295-.416-.728-.416-1.3 0-.52.095-1.066.286-1.638a6.88 6.88 0 0 1 .754-1.612 4.78 4.78 0 0 1 1.066-1.196c.416-.312.849-.468 1.3-.468.329 0 .606.121.832.364.225.225.338.485.338.78Zm-1.715-.468c-.4 0-.754.173-1.066.52-.312.347-.538.893-.676 1.638.832-.121 1.438-.295 1.82-.52.398-.243.598-.511.598-.806a.947.947 0 0 0-.182-.598.593.593 0 0 0-.494-.234Z" fill="#DFDFDF"/></svg>
